X:91
T:Captain Elphinston
R:Strathspey
C:Nathaniel Gow
B:The Athole Collection
M:C
L:1/8
K:F
G<G d>B G2 D>B|G<G G>B d>cB>g|G<G d>B G2 D>E|1 F>GA>B c>BA>f:|2
~F>GA>B c>ff>a||
g<g b>a ~g2 de/^f/|g<g g>a b>ag>d|g<g b>a ~g2 dc/B/|A<fc<f A>GF>a|
g<g b>a ~g2 de/^f/|g<g g>a b>ag>d|g<g b>g a<fg<e|f<cd>f A<Fc>A||

